packages/kaspersky-hexa-ui-icons/src/iconsSVGs/24/RadioButton.svg

<svg width="24" height="24" viewBox="0 0 24 24" fill="none" xmlns="http://www.w3.org/2000/svg">
<path fill-rule="evenodd" clip-rule="evenodd" d="M12 7C9.23858 7 7 9.23858 7 12C7 14.7614 9.23858 17 12 17C14.7614 17 17 14.7614 17 12C17 9.23858 14.7614 7 12 7ZM5 12C5 8.13401 8.13401 5 12 5C15.866 5 19 8.13401 19 12C19 15.866 15.866 19 12 19C8.13401 19 5 15.866 5 12Z" fill="black"/>
</svg>

<svg xmlns="http://www.w3.org/2000/svg" width="24" height="24" fill="none" viewBox="0 0 24 24"><path fill="#000" fill-rule="evenodd" d="M12 7c-2.7614 0-5 2.2386-5 5s2.2386 5 5 5 5-2.2386 5-5-2.2386-5-5-5m-7 5c0-3.866 3.134-7 7-7s7 3.134 7 7-3.134 7-7 7-7-3.134-7-7"/></svg>
